assets/Woman in steamy room/Default/Flat/woman_in_steamy_room_flat_default.svg

<svg width="32" height="32" viewBox="0 0 32 32" fill="none" xmlns="http://www.w3.org/2000/svg">
<path d="M10.7935 12C13.0971 12 14.97 13.8731 14.97 16.177C14.97 17.4491 14.3991 18.581 13.5077 19.3523C14.4391 20.4741 15 21.9265 15 23.4992C15 27.0851 12.0855 30 8.5 30C4.91448 30 2 27.0851 2 23.4992C2 20.5142 4.0131 18 6.75732 17.2387C6.66718 16.8982 6.6171 16.5376 6.6171 16.177C6.6171 13.8731 8.48998 12 10.7935 12Z" fill="#E6E6E6"/>
<path d="M25.3829 16.177C25.3829 16.5476 25.3328 16.8982 25.2427 17.2387C27.9769 18 29.99 20.5142 30 23.4992C30 27.0851 27.0855 30 23.5 30C19.9145 30 17 27.0851 17 23.4992C17 21.9265 17.5609 20.4741 18.4923 19.3523C17.6009 18.581 17.03 17.4491 17.03 16.177C17.03 13.8731 18.9029 12 21.2065 12C23.51 12 25.3829 13.8731 25.3829 16.177Z" fill="#E6E6E6"/>
<path d="M23.5 10.5007C23.5 11.0061 23.3888 11.4912 23.1765 11.9259C23.1058 12.0674 23.1058 12.2392 23.1765 12.3807C23.3787 12.8053 23.5 13.2803 23.5 13.7857C23.5 15.5647 22.0647 17 20.2857 17H11.7143C9.93531 17 8.5 15.5647 8.5 13.7857C8.5 13.2803 8.62129 12.8053 8.82345 12.3807C8.8942 12.2392 8.8942 12.0674 8.82345 11.9259C8.62129 11.4912 8.5 11.0162 8.5 10.5007C8.5 9.82502 8.70122 9.20974 9.04343 8.68493L9.04572 8.68127C9.38938 8.15566 9.57132 7.53908 9.57132 6.9124V6.90229C9.57132 5.11128 11.0014 3.65329 12.7815 3.60822C12.8098 3.6075 12.8381 3.60714 12.8665 3.60714C13.0484 3.60714 13.2202 3.51617 13.3213 3.37466C13.9177 2.54582 14.8981 2 15.9999 2C17.1016 2 18.0822 2.54582 18.6786 3.37466C18.7796 3.52628 18.9515 3.60714 19.1334 3.60714C20.9528 3.60714 22.4286 5.08288 22.4286 6.90229V6.9124C22.4286 7.53908 22.6105 8.15566 22.9542 8.68127L22.9562 8.68439C23.0664 8.8452 23.1568 9.016 23.2371 9.19677H23.2318C23.404 9.59597 23.5 10.0339 23.5 10.5007Z" fill="#F1A11E"/>
<path d="M12.75 10.625C12.75 11.5225 12.0225 12.25 11.125 12.25C10.2275 12.25 9.5 11.5225 9.5 10.625C9.5 9.72754 10.2275 9 11.125 9C12.0225 9 12.75 9.72754 12.75 10.625Z" fill="#FDBB11"/>
<path d="M22.5 10.625C22.5 11.5225 21.7725 12.25 20.875 12.25C19.9775 12.25 19.25 11.5225 19.25 10.625C19.25 9.72754 19.9775 9 20.875 9C21.7725 9 22.5 9.72754 22.5 10.625Z" fill="#FDBB11"/>
<path d="M27 30H5C5 30 5 29.3371 5 29C5 22.9249 9.92487 18 16 18C22.0751 18 27 22.9249 27 29C27 29.3371 27 30 27 30Z" fill="#8B62BF"/>
<path d="M18.03 17.5901C18.03 17.9201 18.25 18.2001 18.57 18.2801C19.4234 18.4876 20.2377 18.7947 21 19.1882L15.975 29.9501L11 19.1655C11.7507 18.7828 12.5514 18.4836 13.39 18.2801C13.71 18.2001 13.93 17.9201 13.93 17.5901V15.6201C13.93 14.4901 14.85 13.5701 15.98 13.5701C17.11 13.5701 18.03 14.4901 18.03 15.6201V17.5901Z" fill="#FCB100"/>
<path d="M11.0005 16.5C12.1013 15.5071 14.0005 15.5 14.0005 15.5V17.5C14.0005 18.1674 13.4416 18.2967 13.1112 18.3731C13.0703 18.3826 13.0329 18.3912 13.0005 18.4C12.5777 18.5293 12.6394 18.9801 13.0005 20L16.0002 27.4994L19 20C19.3611 18.9801 19.4228 18.5293 19 18.4C18.9676 18.3912 18.9302 18.3826 18.8893 18.3731C18.5589 18.2967 18 18.1674 18 17.5V15.5C18 15.5 19.8992 15.5071 21 16.5C21.943 17.3506 22.1882 18.8662 21.8665 19.8009L17.9597 30H14.0407L10.134 19.8009C9.81227 18.8662 10.0575 17.3506 11.0005 16.5Z" fill="#A17FD5"/>
<path d="M11.0092 9.37556H11.0201L11.0101 9.09418L11 8.76952C11.0201 7.76306 11.5634 7.37346 11.7948 7.24359C11.8099 7.23818 11.8275 7.23007 11.8451 7.22195C11.8627 7.21383 11.8803 7.20572 11.8954 7.20031C12.4185 6.94057 12.841 6.48604 13.0624 5.89083L13.1429 5.6852C13.2233 5.47958 13.4748 5.44712 13.5956 5.63109C14.2998 6.74578 15.4769 7.40593 16.7243 7.40593H19.8833C20.0644 7.40593 20.9899 7.50333 21 8.92103L20.9899 9.37556L20.8956 11.8793C20.7745 14.8359 18.6244 16.8212 15.9998 16.8212C13.3752 16.8212 11.2251 14.8359 11.1039 11.8793L11.0092 9.37556Z" fill="#FFC83D"/>
<path d="M16.0005 13.8957C15.45 13.8957 14.9301 13.7569 14.4918 13.5219C14.3389 13.4365 14.186 13.618 14.2777 13.7675C14.6447 14.3549 15.2767 14.75 16.0005 14.75C16.7243 14.75 17.3563 14.3549 17.7233 13.7675C17.8151 13.618 17.652 13.4472 17.5093 13.5219C17.0709 13.7569 16.551 13.8957 16.0005 13.8957Z" fill="#990839"/>
<path d="M15.6446 10.2827L15.1488 12.0325C15.0459 12.3906 15.2891 12.7488 15.6352 12.7488H16.3648C16.7109 12.7488 16.9541 12.3906 16.8512 12.0325L16.3554 10.2827C16.2526 9.90413 15.7474 9.90413 15.6446 10.2827Z" fill="#ED9200"/>
<path d="M13.3337 9.18311C13.9083 9.18311 14.3731 9.58029 14.6689 10.0282C14.387 10.1165 14.1133 10.1952 13.8423 10.2732C13.439 10.3892 13.0417 10.5035 12.6323 10.6451L12.1421 10.2056C11.9393 10.0197 11.9562 9.6986 12.1759 9.53804C12.497 9.30987 12.928 9.18311 13.3337 9.18311Z" fill="black"/>
<path d="M18.666 9.18311C18.0914 9.18311 17.6266 9.58029 17.3308 10.0282C17.6127 10.1165 17.8864 10.1952 18.1574 10.2732C18.5607 10.3892 18.958 10.5035 19.3674 10.6451L19.8576 10.2056C20.0604 10.0197 20.0435 9.6986 19.8238 9.53804C19.5026 9.30987 19.0717 9.18311 18.666 9.18311Z" fill="black"/>
<path d="M12.1335 10.3577C12.2856 9.74076 12.8434 9.28442 13.511 9.28442C14.2039 9.28442 14.7786 9.78302 14.9138 10.4253C14.9392 10.5689 14.8208 10.7041 14.6772 10.7041H12.4039C12.2265 10.7041 12.0913 10.5351 12.1335 10.3577Z" fill="white"/>
<path d="M19.866 10.3577C19.7139 9.74076 19.1561 9.28442 18.4885 9.28442C17.7956 9.28442 17.2209 9.78302 17.0857 10.4253C17.0604 10.5689 17.1787 10.7041 17.3223 10.7041H19.5956C19.773 10.7041 19.9083 10.5351 19.866 10.3577Z" fill="white"/>
<path d="M12.8096 10.4676C12.8096 9.96057 13.2152 9.55493 13.7222 9.55493C14.2208 9.55493 14.6349 9.96902 14.6349 10.4676C14.6349 10.5521 14.6265 10.6366 14.6011 10.7127H12.8434C12.818 10.6282 12.8096 10.5521 12.8096 10.4676Z" fill="#7D4533"/>
<path d="M19.1899 10.4676C19.1899 9.96057 18.7842 9.55493 18.2772 9.55493C17.7786 9.55493 17.3645 9.96902 17.3645 10.4676C17.3645 10.5521 17.373 10.6366 17.3983 10.7127H19.1561C19.1814 10.6282 19.1899 10.5521 19.1899 10.4676Z" fill="#7D4533"/>
<path d="M13.7139 9.9436C14.0012 9.9436 14.2378 10.1802 14.2378 10.4675C14.2378 10.5605 14.2209 10.6366 14.1702 10.7126H13.2491C13.2153 10.6366 13.1899 10.5521 13.1899 10.4675C13.1899 10.1802 13.4266 9.9436 13.7139 9.9436Z" fill="black"/>
<path d="M18.2771 9.9436C17.9898 9.9436 17.7532 10.1802 17.7532 10.4675C17.7532 10.5605 17.7785 10.6366 17.8208 10.7126H18.7419C18.7757 10.6366 18.8011 10.5521 18.8011 10.4675C18.8011 10.1802 18.5644 9.9436 18.2771 9.9436Z" fill="black"/>
<path d="M13.4569 10.1125C13.4569 10.2011 13.385 10.273 13.2963 10.273C13.2076 10.273 13.1357 10.2011 13.1357 10.1125C13.1357 10.0238 13.2076 9.9519 13.2963 9.9519C13.385 9.9519 13.4569 10.0238 13.4569 10.1125Z" fill="white"/>
<path d="M18.0203 10.1125C18.0203 10.2011 17.9485 10.273 17.8598 10.273C17.7711 10.273 17.6992 10.2011 17.6992 10.1125C17.6992 10.0238 17.7711 9.9519 17.8598 9.9519C17.9485 9.9519 18.0203 10.0238 18.0203 10.1125Z" fill="white"/>
<path d="M12.1357 8.75129C12.1864 8.8358 12.2794 8.8865 12.3723 8.8865C12.4146 8.8865 12.4653 8.87805 12.4991 8.8527C12.5075 8.84425 13.2512 8.43016 14.0709 8.58227C14.223 8.60763 14.3667 8.51467 14.392 8.36256C14.4174 8.21044 14.3244 8.06678 14.1723 8.04143C13.1582 7.85551 12.2709 8.35411 12.2371 8.37946C12.1019 8.45551 12.0596 8.61608 12.1357 8.75129Z" fill="#D37034"/>
<path d="M19.4537 8.8527C19.496 8.87805 19.5467 8.8865 19.589 8.8865C19.6819 8.8865 19.7749 8.8358 19.8171 8.75129C19.8932 8.62453 19.8509 8.45551 19.7157 8.37946C19.6819 8.35411 18.803 7.85551 17.7805 8.04143C17.6284 8.06678 17.5354 8.21044 17.5608 8.36256C17.5861 8.51467 17.7298 8.60763 17.8819 8.58227C18.7016 8.43016 19.4453 8.84425 19.4537 8.8527Z" fill="#D37034"/>
<path d="M2 30H11C11 26.6832 8.31388 24 4.99339 24H2V30Z" fill="#F4F4F4"/>
<path d="M30 30H21C21 26.6832 23.6861 24 27.0066 24H30V30Z" fill="#F4F4F4"/>
</svg>

<svg xmlns="http://www.w3.org/2000/svg" width="32" height="32" fill="none"><path fill="#E6E6E6" d="M10.793 12a4.18 4.18 0 0 1 4.177 4.177c0 1.272-.57 2.404-1.462 3.175A6.483 6.483 0 0 1 15 23.5C15 27.085 12.085 30 8.5 30a6.499 6.499 0 0 1-1.743-12.761c-.09-.34-.14-.701-.14-1.062A4.18 4.18 0 0 1 10.793 12ZM25.383 16.177c0 .37-.05.721-.14 1.062A6.522 6.522 0 0 1 30 23.499C30 27.085 27.085 30 23.5 30a6.506 6.506 0 0 1-6.5-6.5c0-1.573.56-3.026 1.492-4.148a4.187 4.187 0 0 1-1.462-3.175A4.18 4.18 0 0 1 21.206 12a4.18 4.18 0 0 1 4.177 4.177Z"/><path fill="#F1A11E" d="M23.5 10.5c0 .506-.111.991-.323 1.426a.514.514 0 0 0 0 .455c.202.424.323.9.323 1.405A3.21 3.21 0 0 1 20.286 17h-8.572a3.21 3.21 0 0 1-2.89-4.62.514.514 0 0 0 0-.454 3.295 3.295 0 0 1 .22-3.241l.002-.004a3.236 3.236 0 0 0 .525-1.769v-.01a3.296 3.296 0 0 1 3.296-3.295.565.565 0 0 0 .454-.232A3.302 3.302 0 0 1 16 2c1.102 0 2.082.546 2.679 1.375a.538.538 0 0 0 .454.232 3.296 3.296 0 0 1 3.296 3.295v.01c0 .627.181 1.244.525 1.77l.002.002c.11.161.2.332.281.513h-.005c.172.399.268.837.268 1.304Z"/><path fill="#FDBB11" d="M12.75 10.625a1.625 1.625 0 1 1-3.25 0 1.625 1.625 0 0 1 3.25 0ZM22.5 10.625a1.625 1.625 0 1 1-3.25 0 1.625 1.625 0 0 1 3.25 0Z"/><path fill="#8B62BF" d="M27 30H5v-1c0-6.075 4.925-11 11-11s11 4.925 11 11v1Z"/><path fill="#FCB100" d="M18.03 17.59c0 .33.22.61.54.69.853.208 1.668.515 2.43.908L15.975 29.95 11 19.166c.75-.383 1.551-.682 2.39-.886.32-.08.54-.36.54-.69v-1.97c0-1.13.92-2.05 2.05-2.05s2.05.92 2.05 2.05v1.97Z"/><path fill="#A17FD5" d="M11 16.5c1.101-.993 3-1 3-1v2c0 .667-.558.797-.889.873-.04.01-.078.018-.11.027-.423.13-.362.58 0 1.6l3 7.5L19 20c.361-1.02.423-1.47 0-1.6-.032-.009-.07-.017-.11-.027-.331-.076-.89-.206-.89-.873v-2s1.9.007 3 1c.943.85 1.188 2.366.866 3.3L17.96 30h-3.92l-3.906-10.2c-.322-.934-.077-2.45.867-3.3Z"/><path fill="#FFC83D" d="M11.01 9.376h.01l-.01-.282L11 8.77c.02-1.007.563-1.397.795-1.526a.665.665 0 0 0 .05-.022.665.665 0 0 1 .05-.022 2.37 2.37 0 0 0 1.167-1.31l.08-.205c.081-.205.333-.238.454-.054.704 1.115 1.88 1.775 3.128 1.775h3.16c.18 0 1.106.097 1.116 1.515l-.01.455-.094 2.503c-.122 2.957-2.272 4.942-4.896 4.942-2.625 0-4.775-1.985-4.896-4.942l-.095-2.503Z"/><path fill="#990839" d="M16 13.896c-.55 0-1.07-.14-1.508-.374-.153-.085-.306.096-.214.245.367.588.999.983 1.722.983.724 0 1.356-.395 1.723-.982.092-.15-.071-.32-.214-.246a3.204 3.204 0 0 1-1.509.374Z"/><path fill="#ED9200" d="m15.645 10.283-.496 1.75c-.103.358.14.716.486.716h.73c.346 0 .59-.358.486-.716l-.496-1.75a.364.364 0 0 0-.71 0Z"/><path fill="#000" d="M13.334 9.183c.574 0 1.04.397 1.335.845-.282.088-.556.167-.827.245-.403.116-.8.23-1.21.372l-.49-.44a.431.431 0 0 1 .034-.667 2.057 2.057 0 0 1 1.158-.355ZM18.666 9.183c-.575 0-1.04.397-1.335.845.282.088.555.167.826.245.404.116.801.23 1.21.372l.49-.44a.431.431 0 0 0-.033-.667 2.058 2.058 0 0 0-1.158-.355Z"/><path fill="#fff" d="M12.133 10.358a1.416 1.416 0 0 1 1.378-1.074c.693 0 1.268.499 1.403 1.141a.243.243 0 0 1-.237.28h-2.273a.281.281 0 0 1-.27-.347ZM19.866 10.358a1.416 1.416 0 0 0-1.378-1.074c-.692 0-1.267.499-1.402 1.141a.243.243 0 0 0 .236.28h2.274a.28.28 0 0 0 .27-.347Z"/><path fill="#7D4533" d="M12.81 10.468c0-.507.405-.913.912-.913a.92.92 0 0 1 .88 1.158h-1.759a.816.816 0 0 1-.033-.245ZM19.19 10.468a.909.909 0 0 0-.913-.913.92.92 0 0 0-.879 1.158h1.758a.819.819 0 0 0 .034-.245Z"/><path fill="#000" d="M13.714 9.944c.287 0 .524.236.524.523 0 .093-.017.17-.068.246h-.92a.527.527 0 0 1 .465-.769ZM18.277 9.944a.527.527 0 0 0-.524.523c0 .093.026.17.068.246h.92a.527.527 0 0 0-.465-.769Z"/><path fill="#fff" d="M13.457 10.113a.16.16 0 1 1-.321 0 .16.16 0 0 1 .32 0ZM18.02 10.113a.16.16 0 1 1-.32 0 .16.16 0 0 1 .32 0Z"/><path fill="#D37034" d="M12.136 8.751a.28.28 0 0 0 .236.136.22.22 0 0 0 .127-.034c.008-.009.752-.423 1.572-.27a.272.272 0 0 0 .321-.22.272.272 0 0 0-.22-.322c-1.014-.185-1.901.313-1.935.338a.267.267 0 0 0-.101.372ZM19.454 8.853a.268.268 0 0 0 .135.034c.093 0 .186-.051.228-.136a.269.269 0 0 0-.101-.372c-.034-.025-.913-.523-1.936-.338a.272.272 0 0 0-.22.322.272.272 0 0 0 .322.22c.82-.153 1.563.261 1.572.27Z"/><path fill="#F4F4F4" d="M2 30h9a6 6 0 0 0-6.007-6H2v6ZM30 30h-9a6 6 0 0 1 6.007-6H30v6Z"/></svg>
